resources/icons/16px/snowflake.svg

<?xml version="1.0" encoding="UTF-8"?>
<svg width="16px" height="16px" viewBox="0 0 16 16" version="1.1" xmlns="http://www.w3.org/2000/svg" xmlns:xlink="http://www.w3.org/1999/xlink">
    <!-- Generator: Sketch 50.2 (55047) - http://www.bohemiancoding.com/sketch -->
    <title>16px</title>
    <desc>Created with Sketch.</desc>
    <defs></defs>
    <g id="Page-1" stroke="none" stroke-width="1" fill="none" fill-rule="evenodd">
        <g id="16px" fill="#000000" fill-rule="nonzero">
            <path d="M13.363961,9 L14.2426407,9.87867966 C14.633165,10.2692039 14.633165,10.9023689 14.2426407,11.2928932 C13.8521164,11.6834175 13.2189514,11.6834175 12.8284271,11.2928932 L10.7071068,9.17157288 C10.6539966,9.11846273 10.6081093,9.0608649 10.5694448,9 L9,9 L9,10.6035647 C9.04246512,10.6343298 9.08305738,10.6688438 9.12132034,10.7071068 L11.2426407,12.8284271 C11.633165,13.2189514 11.633165,13.8521164 11.2426407,14.2426407 C10.8521164,14.633165 10.2189514,14.633165 9.82842712,14.2426407 L9,13.4142136 L9,15 C9,15.5522847 8.55228475,16 8,16 C7.44771525,16 7,15.5522847 7,15 L7,13.363961 L6.12132034,14.2426407 C5.73079605,14.633165 5.09763107,14.633165 4.70710678,14.2426407 C4.31658249,13.8521164 4.31658249,13.2189514 4.70710678,12.8284271 L6.82842712,10.7071068 C6.88153727,10.6539966 6.9391351,10.6081093 7,10.5694448 L7,9 L5.38030266,9 C5.34163816,9.0608649 5.29575083,9.11846273 5.24264069,9.17157288 L3.12132034,11.2928932 C2.73079605,11.6834175 2.09763107,11.6834175 1.70710678,11.2928932 C1.31658249,10.9023689 1.31658249,10.2692039 1.70710678,9.87867966 L2.58578644,9 L1,9 C0.44771525,9 2.02906125e-16,8.55228475 0,8 C-2.02906125e-16,7.44771525 0.44771525,7 1,7 L2.53553391,7 L1.70710678,6.17157288 C1.31658249,5.78104858 1.31658249,5.1478836 1.70710678,4.75735931 C2.09763107,4.36683502 2.73079605,4.36683502 3.12132034,4.75735931 L5.24264069,6.87867966 C5.28090365,6.91694262 5.31541767,6.95753488 5.34618274,7 L7,7 L7,5.38030266 C6.9391351,5.34163816 6.88153727,5.29575083 6.82842712,5.24264069 L4.70710678,3.12132034 C4.31658249,2.73079605 4.31658249,2.09763107 4.70710678,1.70710678 C5.09763107,1.31658249 5.73079605,1.31658249 6.12132034,1.70710678 L7,2.58578644 L7,1 C7,0.44771525 7.44771525,1.01453063e-16 8,0 C8.55228475,-1.01453063e-16 9,0.44771525 9,1 L9,2.53553391 L9.82842712,1.70710678 C10.2189514,1.31658249 10.8521164,1.31658249 11.2426407,1.70710678 C11.633165,2.09763107 11.633165,2.73079605 11.2426407,3.12132034 L9.12132034,5.24264069 C9.08305738,5.28090365 9.04246512,5.31541767 9,5.34618274 L9,7 L10.6035647,7 C10.6343298,6.95753488 10.6688438,6.91694262 10.7071068,6.87867966 L12.8284271,4.75735931 C13.2189514,4.36683502 13.8521164,4.36683502 14.2426407,4.75735931 C14.633165,5.1478836 14.633165,5.78104858 14.2426407,6.17157288 L13.4142136,7 L15,7 C15.5522847,7 16,7.44771525 16,8 C16,8.55228475 15.5522847,9 15,9 L13.363961,9 Z" id="Combined-Shape-Copy"></path>
        </g>
    </g>
</svg>

<svg xmlns="http://www.w3.org/2000/svg" viewBox="0 0 16 16">
  <path d="m13.364 9 .879.879a1 1 0 1 1-1.415 1.414l-2.12-2.121A1 1 0 0 1 10.568 9H9v1.604q.063.045.121.103l2.122 2.121a1 1 0 0 1-1.415 1.415L9 13.414V15a1 1 0 0 1-2 0v-1.636l-.879.879a1 1 0 1 1-1.414-1.415l2.121-2.12q.08-.08.172-.139V9H5.38q-.057.09-.137.172l-2.122 2.12A1 1 0 1 1 1.707 9.88L2.586 9H1a1 1 0 1 1 0-2h1.536l-.829-.828a1 1 0 0 1 1.414-1.415L5.243 6.88q.057.058.103.121H7V5.38a1 1 0 0 1-.172-.137L4.708 3.12A1 1 0 0 1 6.12 1.707L7 2.586V1a1 1 0 1 1 2 0v1.536l.828-.829a1 1 0 0 1 1.415 1.414L9.12 5.243A1 1 0 0 1 9 5.346V7h1.604q.045-.063.103-.121l2.121-2.122a1 1 0 0 1 1.415 1.415L13.414 7H15a1 1 0 0 1 0 2z"/>
</svg>
